build/img/cloud-icon.svg

<svg width="97" height="70" viewBox="0 0 97 70" fill="none" xmlns="http://www.w3.org/2000/svg">
<g clip-path="url(#clip0)">
<path d="M79.6565 27.0556C79.3249 27.0556 78.9868 27.0556 78.6522 27.0874C77.9437 18.4962 70.8152 11.7872 62.3592 11.7872C60.1124 11.7902 57.8897 12.2637 55.8273 13.1786C54.3249 9.28637 51.7162 5.94786 48.3405 3.59714C44.9647 1.24641 40.978 -0.00784824 36.8984 -0.00260816C25.6829 -0.00260816 16.5574 9.32183 16.5574 20.7825C16.5574 21.1001 16.5574 21.4235 16.5827 21.7497C11.9985 22.4016 7.79738 24.729 4.75105 28.3045C1.70471 31.8799 0.0177001 36.4632 -0.000125831 41.2127C-0.0136081 45.1368 1.12551 48.9741 3.26866 52.2239C5.41182 55.4738 8.45953 57.9855 12.0143 59.4314C13.916 60.2282 17.2916 60.6814 17.5785 60.0088C17.6939 59.7403 17.4069 59.4603 16.653 59.1052C14.6932 58.1968 12.8113 57.121 11.027 55.8893C7.43753 53.2912 5.54437 50.615 4.59075 48.8339C3.40945 46.4772 2.79958 43.8628 2.81291 41.2127C2.82483 36.9403 4.42016 32.8325 7.27515 29.723C10.1302 26.6135 14.031 24.7351 18.1862 24.4691C18.3767 24.4566 18.5629 24.4046 18.7332 24.3159C18.9036 24.2273 19.0545 24.104 19.1769 23.9535C19.2993 23.8031 19.3906 23.6286 19.4451 23.4408C19.4997 23.253 19.5163 23.0557 19.4942 22.8611C19.4142 22.1712 19.3729 21.4773 19.3704 20.7825C19.3704 10.9153 27.2469 2.88422 36.8984 2.88422C40.6517 2.89641 44.3033 4.1378 47.3213 6.42763C50.3394 8.71745 52.5664 11.9361 53.6782 15.6152C53.7395 15.8219 53.8452 16.0119 53.9875 16.1711C54.13 16.3303 54.3053 16.4547 54.5008 16.535C54.6963 16.6154 54.9069 16.6497 55.117 16.6354C55.3271 16.621 55.5314 16.5585 55.7148 16.4523C57.7709 15.2684 60.0923 14.6555 62.4498 14.6742C64.8074 14.6928 67.1194 15.3424 69.1574 16.5587C71.1954 17.775 72.8886 19.5159 74.0709 21.6095C75.2525 23.703 75.8813 26.0768 75.8957 28.4961V28.6665C75.8928 28.8763 75.9352 29.0841 76.0192 29.2755C76.1032 29.4668 76.2266 29.6372 76.381 29.7745C76.5353 29.9119 76.7169 30.0131 76.9136 30.0711C77.1103 30.129 77.3163 30.1422 77.5188 30.1099C78.2266 29.997 78.9423 29.9401 79.6594 29.9396C83.2903 29.9311 86.7761 31.4022 89.3518 34.0296C91.9267 36.657 93.3796 40.2258 93.3925 43.9522C93.3925 48.5278 90.9224 53.2334 87.3475 55.5602C85.6599 56.6889 85.6283 56.9026 81.319 59.0966C80.8352 59.3419 80.3004 59.6739 80.4555 60.0174C80.5596 60.2542 81.0434 60.3581 81.716 60.3581C83.2867 60.3122 84.8394 59.998 86.3095 59.4285C89.7861 57.8795 92.6345 55.1462 94.3738 51.6906C96.1139 48.2351 96.6379 44.2692 95.8569 40.4632C95.0766 36.6571 93.0394 33.2442 90.0904 30.8014C87.1408 28.3585 83.4604 27.0354 79.6709 27.0556H79.6565Z" fill="#231F20"/>
<path d="M19.9196 65.5271V67.7528H18.8113V62.6577H19.9196V64.638H20.5356L21.9422 62.6577H23.208L21.3317 65.1287L23.3487 67.7528H22.0828L20.4372 65.5271H19.9196Z" fill="#231F20"/>
<path d="M25.9034 67.8763C24.6938 67.8763 23.4561 67.0506 23.4561 65.2147C23.4561 63.3786 24.6938 62.5414 25.9034 62.5414C27.113 62.5414 28.3507 63.3757 28.3507 65.2147C28.3507 67.0535 27.113 67.8763 25.9034 67.8763ZM27.2143 65.2147C27.2143 64.0397 26.5954 63.4623 25.9034 63.4623C25.2114 63.4623 24.5925 64.0397 24.5925 65.2147C24.5925 66.3896 25.2114 66.9467 25.9034 66.9467C26.5954 66.9467 27.2143 66.3924 27.2143 65.2147Z" fill="#231F20"/>
<path d="M32.6301 65.5849H30.4134V67.7528H29.3135V62.6577H30.4134V64.6928H32.6301V62.6577H33.7272V67.7528H32.6301V65.5849Z" fill="#231F20"/>
<path d="M39.1024 68.9596V67.7558H35.4736V68.9596H34.4778V66.8754H34.7591C35.3217 66.8754 35.603 66.1363 35.6818 64.2772L35.7549 62.6577H39.3753V66.8724H40.1151V68.9567L39.1024 68.9596ZM36.7113 63.5497L36.6663 64.4158C36.5903 65.761 36.4075 66.4885 36.0193 66.8783H38.2697V63.5497H36.7113Z" fill="#231F20"/>
<path d="M44.3884 67.7528V64.2194L42.0254 67.7528H40.9255V62.6577H42.0254V66.2084L44.3884 62.6577H45.4883V67.7528H44.3884Z" fill="#231F20"/>
<path d="M51.6953 68.9567H50.6967V67.7528H46.7275V62.6577H47.8218V66.8637H49.8528V62.6577H50.9526V66.8637H51.6925L51.6953 68.9567Z" fill="#231F20"/>
<path d="M55.979 67.7528V64.2194L53.616 67.7528H52.5161V62.6577H53.616V66.2084L55.979 62.6577H57.0788V67.7528H55.979Z" fill="#231F20"/>
<path d="M60.3924 67.8763C59.1828 67.8763 57.9451 67.0506 57.9451 65.2147C57.9451 63.3786 59.1828 62.5414 60.3924 62.5414C61.602 62.5414 62.8398 63.3757 62.8398 65.2147C62.8398 67.0535 61.6048 67.8763 60.3924 67.8763ZM61.7033 65.2147C61.7033 64.0397 61.0844 63.4623 60.3924 63.4623C59.7004 63.4623 59.0816 64.0397 59.0816 65.2147C59.0816 66.3896 59.7004 66.9467 60.3924 66.9467C61.0844 66.9467 61.7033 66.3924 61.7033 65.2147Z" fill="#231F20"/>
<path d="M67.1051 65.5849H64.8912V67.7528H63.7913V62.6577H64.8912V64.6928H67.1051V62.6577H68.205V67.7528H67.1051V65.5849Z" fill="#231F20"/>
<path d="M71.6214 66.9381C72.1838 66.9381 72.6454 66.7014 72.8392 66.2279H73.9196C73.7767 66.7205 73.4781 67.15 73.0703 67.4486C72.6626 67.7471 72.1695 67.8976 71.6693 67.8763C70.0715 67.8763 69.1572 66.6263 69.1572 65.1655C69.1572 63.6326 70.184 62.5414 71.5962 62.5414C73.1177 62.5414 74.0689 63.8116 73.9784 65.5264H70.2741C70.3472 66.4733 70.9942 66.9381 71.6214 66.9381ZM72.8593 64.7037C72.8586 64.534 72.8256 64.3661 72.7617 64.2096C72.6978 64.0531 72.6045 63.9112 72.4867 63.792C72.369 63.6729 72.229 63.5787 72.0761 63.5152C71.9225 63.4517 71.7586 63.42 71.5933 63.4219C71.2533 63.4141 70.9239 63.5444 70.6768 63.7844C70.4298 64.0244 70.285 64.3547 70.2741 64.7037H72.8593Z" fill="#231F20"/>
<path d="M75.9882 63.3403C76.1433 63.084 76.3622 62.875 76.6228 62.7348C76.8827 62.5947 77.1748 62.5286 77.4684 62.5435C78.678 62.5435 79.6004 63.577 79.6004 65.2051C79.6004 66.8334 78.678 67.8783 77.4684 67.8783C77.1748 67.8932 76.8827 67.8271 76.6228 67.687C76.3622 67.5469 76.1433 67.3379 75.9882 67.0816V69.4142H74.8914V62.659H75.9882V63.3403ZM78.4555 65.2051C78.4555 64.137 77.9939 63.4731 77.2265 63.4731C76.5058 63.4731 75.9437 64.0504 75.9437 65.2051C75.9437 66.3599 76.5058 66.9603 77.2265 66.9603C77.9939 66.9719 78.4555 66.2877 78.4555 65.2051Z" fill="#231F20"/>
<path d="M20.2703 49.1126C22.1692 49.1126 23.7866 50.3973 23.7866 52.955C23.7866 55.5127 22.1692 56.7858 20.2703 56.7858C18.3715 56.7858 16.7512 55.5127 16.7512 52.955C16.7512 50.3973 18.3687 49.1126 20.2703 49.1126ZM20.2703 54.7708C20.8752 54.7708 21.3393 54.3089 21.3393 52.955C21.3393 51.6011 20.8752 51.1276 20.2703 51.1276C19.6655 51.1276 19.2014 51.6011 19.2014 52.955C19.2014 54.3089 19.6627 54.7708 20.2703 54.7708Z" fill="#231F20"/>
<path d="M24.3699 52.1859V51.9608C24.4402 49.2963 25.2138 47.0763 28.3081 46.7645L30.387 46.5624V48.7853L27.8327 49.074C26.8932 49.1952 26.1449 49.5618 26.0606 50.9302C26.4656 50.1016 27.3573 49.8332 28.1534 49.8332C29.709 49.8332 31.1099 50.9879 31.1099 53.2021C31.1099 55.5867 29.3517 56.776 27.678 56.776C25.8805 56.7876 24.3699 55.425 24.3699 52.1859ZM28.6935 53.2137C28.6935 52.0099 28.1928 51.6577 27.6583 51.6577C27.1238 51.6577 26.7103 52.0243 26.7103 53.2137C26.7103 54.2847 27.1829 54.7726 27.6837 54.7726C28.1844 54.7726 28.6935 54.3511 28.6935 53.2137Z" fill="#231F20"/>
<path d="M31.5063 54.6381H31.7201C32.159 54.6381 32.5866 54.1762 32.6935 51.7686L32.8144 49.3322H38.539V56.6127H36.1648V51.3067H35.0002L34.8932 53.0128C34.7611 55.0711 34.0128 56.6127 31.9564 56.6127H31.5063V54.6381Z" fill="#231F20"/>
<path d="M42.9 50.8316C42.7687 50.8178 42.6361 50.8312 42.5101 50.8711C42.384 50.911 42.267 50.9765 42.1662 51.0638C42.0654 51.1512 41.9828 51.2584 41.9233 51.3792C41.8637 51.5 41.8285 51.6319 41.8197 51.767H39.7747C39.8815 50.3842 40.9534 49.0707 43.0659 49.0707C44.8972 49.0707 46.2025 49.8559 46.18 52.2924V53.6867C46.1645 54.663 46.204 55.6394 46.2981 56.6111H44.0871V55.6642C43.6116 56.4638 42.8184 56.7872 41.9154 56.7872C40.6664 56.7872 39.634 55.9067 39.634 54.6076C39.634 52.9159 41.1643 52.2 43.8535 52.0095V51.8074C43.8507 50.9933 43.4119 50.8316 42.9 50.8316ZM42.0082 54.2958C42.0082 54.6076 42.2361 54.9598 42.7931 54.9598C43.4119 54.9598 43.9352 54.6711 43.9352 53.551V53.3345C42.6749 53.4298 42.0082 53.6752 42.0082 54.3103V54.2958Z" fill="#231F20"/>
<path d="M51.1966 54.2166C50.675 54.344 50.1406 54.4079 49.6044 54.4072C48.1782 54.4072 47.3118 53.6479 47.3118 52.0255V49.3322H49.6888V51.6041C49.6888 52.4297 49.9363 52.5654 50.6143 52.5654C50.8111 52.5673 51.0073 52.54 51.1966 52.4846V49.3322H53.5736V56.6127H51.1966V54.2166Z" fill="#231F20"/>
<path d="M54.9841 49.3322H57.3611V51.9043H59.2262V49.3322H61.606V56.6127H59.229V53.8789H57.3639V56.6127H54.9869L54.9841 49.3322Z" fill="#231F20"/>
<path d="M63.0286 49.3322H65.4028V51.4568H66.2467C68.2412 51.4568 69.0851 52.2421 69.0851 54.0002C69.0851 55.9632 68.3368 56.6127 66.3902 56.6127H63.0286V49.3322ZM66.1764 54.7853C66.663 54.7853 66.9725 54.6237 66.9725 54.0002C66.9725 53.4459 66.663 53.2842 66.1876 53.2842H65.4028V54.7853H66.1764ZM69.884 49.3322H72.2582V56.6127H69.884V49.3322Z" fill="#231F20"/>
<path d="M73.6838 49.3299H75.8812V53.3714L78.0807 49.3299H80.278V56.6105H78.0807V52.644L75.8812 56.6105H73.6838V49.3299ZM74.6831 46.7981H76.0893C76.1482 47.1214 76.4468 47.286 76.9809 47.286C77.5157 47.286 77.8251 47.1214 77.8725 46.7981H79.2795C79.184 47.7999 78.4353 48.4898 76.9752 48.4898C75.5158 48.4898 74.7534 47.7999 74.6831 46.7981Z" fill="#231F20"/>
</g>
<defs>
<clipPath id="clip0">
<rect width="96.1917" height="69.4167" fill="white"/>
</clipPath>
</defs>
</svg>

<svg width="97" height="70" viewBox="0 0 97 70" fill="none" xmlns="http://www.w3.org/2000/svg"><g clip-path="url(#clip0)" fill="#231F20"><path d="M79.656 27.056c-.331 0-.67 0-1.004.031-.708-8.59-7.837-15.3-16.293-15.3-2.247.003-4.47.477-6.532 1.392-1.502-3.893-4.11-7.231-7.486-9.582a19.968 19.968 0 00-11.443-3.6c-11.215 0-20.34 9.325-20.34 20.785 0 .318 0 .642.025.968-4.584.652-8.786 2.979-11.832 6.555C1.705 31.88.018 36.462 0 41.212a19.888 19.888 0 003.269 11.01 19.125 19.125 0 008.745 7.208c1.902.797 5.278 1.25 5.564.578.116-.269-.171-.549-.925-.904a38.13 38.13 0 01-5.626-3.216c-3.59-2.598-5.483-5.274-6.436-7.055a16.827 16.827 0 01-1.778-7.621c.012-4.273 1.607-8.38 4.462-11.49 2.855-3.11 6.756-4.988 10.911-5.254a1.38 1.38 0 00.547-.153c.17-.089.322-.212.444-.363a1.454 1.454 0 00.317-1.092c-.08-.69-.121-1.384-.124-2.079 0-9.867 7.877-17.898 17.528-17.898a17.33 17.33 0 0110.423 3.544c3.018 2.29 5.245 5.508 6.357 9.187.062.207.167.397.31.556.142.16.317.284.513.364a1.374 1.374 0 001.214-.083 13.28 13.28 0 016.735-1.778c2.357.019 4.67.668 6.707 1.885a13.74 13.74 0 014.914 5.05 14.19 14.19 0 011.825 6.887v.17a1.466 1.466 0 00.485 1.108 1.393 1.393 0 001.138.336 13.65 13.65 0 012.14-.17c3.631-.009 7.117 1.462 9.693 4.09 2.575 2.627 4.028 6.196 4.04 9.922 0 4.576-2.47 9.281-6.044 11.608-1.688 1.129-1.72 1.343-6.029 3.537-.484.245-1.019.577-.864.92.105.237.588.341 1.261.341 1.57-.046 3.123-.36 4.594-.93 3.476-1.548 6.325-4.282 8.064-7.737a17.273 17.273 0 001.483-11.228c-.78-3.806-2.818-7.219-5.767-9.662a16.193 16.193 0 00-10.42-3.745h-.014zM19.92 65.527v2.226h-1.11v-5.095h1.109v1.98h.616l1.406-1.98h1.266l-1.876 2.47 2.017 2.625h-1.266l-1.646-2.226h-.517zm5.983 2.349c-1.21 0-2.447-.825-2.447-2.661s1.238-2.674 2.447-2.674c1.21 0 2.448.835 2.448 2.674 0 1.838-1.238 2.661-2.448 2.661zm1.311-2.661c0-1.175-.619-1.753-1.31-1.753-.693 0-1.311.578-1.311 1.753 0 1.175.618 1.732 1.31 1.732.692 0 1.311-.555 1.311-1.732zm5.416.37h-2.217v2.168h-1.1v-5.095h1.1v2.035h2.217v-2.035h1.097v5.095H32.63v-2.168zm6.472 3.375v-1.204h-3.628v1.204h-.996v-2.085h.281c.563 0 .844-.739.923-2.598l.073-1.62h3.62v4.215h.74v2.085l-1.013.003zm-2.39-5.41l-.046.866c-.076 1.345-.258 2.073-.647 2.462h2.25V63.55h-1.558zm7.676 4.203v-3.534l-2.363 3.534h-1.1v-5.095h1.1v3.55l2.363-3.55h1.1v5.095h-1.1zm7.307 1.204h-.998v-1.204h-3.97v-5.095h1.095v4.206h2.03v-4.206h1.1v4.206h.74l.003 2.093zm4.284-1.204v-3.534l-2.363 3.534h-1.1v-5.095h1.1v3.55l2.363-3.55h1.1v5.095h-1.1zm4.413.123c-1.21 0-2.447-.825-2.447-2.661s1.238-2.674 2.447-2.674c1.21 0 2.448.835 2.448 2.674 0 1.838-1.235 2.661-2.448 2.661zm1.311-2.661c0-1.175-.619-1.753-1.31-1.753-.693 0-1.311.578-1.311 1.753 0 1.175.618 1.732 1.31 1.732.692 0 1.311-.555 1.311-1.732zm5.402.37h-2.214v2.168h-1.1v-5.095h1.1v2.035h2.214v-2.035h1.1v5.095h-1.1v-2.168zm4.516 1.353c.563 0 1.024-.237 1.218-.71h1.08a2.307 2.307 0 01-.849 1.22c-.407.3-.9.45-1.4.428-1.599 0-2.513-1.25-2.513-2.71 0-1.533 1.027-2.625 2.44-2.625 1.52 0 2.472 1.27 2.381 2.985h-3.704c.073.947.72 1.412 1.347 1.412zm1.238-2.234a1.284 1.284 0 00-.373-.912 1.226 1.226 0 00-.893-.37 1.27 1.27 0 00-.916.362 1.34 1.34 0 00-.403.92h2.585zm3.129-1.364c.155-.256.374-.465.635-.605.26-.14.552-.206.845-.191 1.21 0 2.132 1.033 2.132 2.661 0 1.628-.922 2.673-2.132 2.673a1.61 1.61 0 01-.845-.191c-.26-.14-.48-.35-.635-.605v2.332h-1.097V62.66h1.097v.681zm2.468 1.865c0-1.068-.462-1.732-1.23-1.732-.72 0-1.282.577-1.282 1.732s.562 1.755 1.282 1.755c.768.012 1.23-.672 1.23-1.755z"/><path d="M20.27 49.113c1.9 0 3.517 1.284 3.517 3.842s-1.618 3.83-3.517 3.83c-1.898 0-3.519-1.272-3.519-3.83s1.618-3.842 3.52-3.842zm0 5.658c.605 0 1.07-.462 1.07-1.816s-.465-1.827-1.07-1.827c-.604 0-1.069.473-1.069 1.827s.462 1.816 1.07 1.816zm4.1-2.585v-.225c.07-2.665.844-4.885 3.938-5.197l2.079-.202v2.223l-2.554.289c-.94.121-1.688.488-1.772 1.856.405-.828 1.296-1.097 2.092-1.097 1.556 0 2.957 1.155 2.957 3.37 0 2.384-1.758 3.573-3.432 3.573-1.797.012-3.308-1.351-3.308-4.59zm4.323 1.028c0-1.204-.5-1.556-1.035-1.556-.534 0-.948.366-.948 1.556 0 1.07.473 1.559.974 1.559.5 0 1.01-.422 1.01-1.56zm2.813 1.424h.214c.439 0 .867-.462.974-2.87l.12-2.436h5.725v7.28h-2.374v-5.305H35l-.107 1.706c-.132 2.058-.88 3.6-2.937 3.6h-.45v-1.975zM42.9 50.832a.959.959 0 00-.734.232 1.005 1.005 0 00-.346.703h-2.045c.107-1.383 1.178-2.696 3.29-2.696 1.832 0 3.138.785 3.115 3.221v1.395a26.05 26.05 0 00.118 2.924h-2.21v-.947c-.476.8-1.27 1.123-2.173 1.123-1.249 0-2.281-.88-2.281-2.18 0-1.691 1.53-2.407 4.22-2.597v-.203c-.003-.814-.442-.975-.954-.975zm-.892 3.464c0 .312.228.664.785.664.619 0 1.142-.289 1.142-1.409v-.217c-1.26.096-1.927.341-1.927.976v-.014zm9.189-.079a6.672 6.672 0 01-1.593.19c-1.426 0-2.292-.76-2.292-2.381v-2.694h2.377v2.272c0 .826.247.961.925.961a2.02 2.02 0 00.583-.08v-3.153h2.377v7.28h-2.377v-2.395zm3.787-4.885h2.377v2.572h1.865v-2.572h2.38v7.28h-2.377V53.88h-1.865v2.734h-2.377l-.003-7.28zm8.045 0h2.374v2.125h.844c1.994 0 2.838.785 2.838 2.543 0 1.963-.748 2.613-2.695 2.613h-3.36v-7.28zm3.147 5.453c.487 0 .796-.161.796-.785 0-.554-.309-.716-.784-.716h-.785v1.501h.773zm3.708-5.453h2.374v7.28h-2.374v-7.28zm3.8-.002h2.197v4.041l2.2-4.041h2.197v7.28h-2.197v-3.966l-2.2 3.967h-2.197V49.33zm1-2.532h1.405c.06.323.358.488.892.488.535 0 .844-.165.892-.488h1.406c-.095 1.002-.844 1.692-2.304 1.692s-2.222-.69-2.292-1.692z"/></g><defs><clipPath id="clip0"><path fill="#fff" d="M0 0h96.192v69.417H0z"/></clipPath></defs></svg>
